teeny/outline/dollar.svg

<svg width="15" height="15" viewBox="0 0 15 15" fill="none" xmlns="http://www.w3.org/2000/svg">
<path d="M2.5 10.5C2.5 12.1569 3.84315 13.5 5.5 13.5H9.5C11.1569 13.5 12.5 12.1569 12.5 10.5C12.5 8.84315 11.1569 7.5 9.5 7.5H5.5C3.84315 7.5 2.5 6.15685 2.5 4.5C2.5 2.84315 3.84315 1.5 5.5 1.5H9.5C11.1569 1.5 12.5 2.84315 12.5 4.5M7.5 0V1.5M7.5 15V13.5" stroke="black"/>
</svg>

<svg viewBox="0 0 15 15" xmlns="http://www.w3.org/2000/svg"><path fill="none" stroke="#000" d="M2.5 10.5c0 1.65 1.34 3 3 3h4c1.65 0 3-1.35 3-3 0-1.66-1.35-3-3-3h-4c-1.66 0-3-1.35-3-3 0-1.66 1.34-3 3-3h4c1.65 0 3 1.34 3 3M7.5 0v1.5m0 13.5v-1.5"/></svg>
